icon/lg/jsbin.svg

<?xml version="1.0" encoding="UTF-8" standalone="no"?>
<svg viewBox="0 0 256 358" version="1.1" xmlns="http://www.w3.org/2000/svg" xmlns:xlink="http://www.w3.org/1999/xlink" preserveAspectRatio="xMidYMid" height="1em" width="1em">
  <g>
    <g transform="translate(7.968872, 106.583658)">
      <path d="M0.783937743,52.4461223 L0.783937743,199.38814 C0.783937743,227.895772 53.9502668,251.008488 119.53408,251.008488 C185.118889,251.008488 238.284212,227.895772 238.284212,199.38814 L238.284212,52.4461223 C238.284212,52.4461223 233.344498,102.623118 119.53408,102.623118 C5.72164981,102.624125 0.783937743,52.4461223 0.783937743,52.4461223 L0.783937743,52.4461223 Z" fill="#9EAAB2"/>
      <ellipse fill="#8E979A" cx="119.53407" cy="52.4461323" rx="118.750132" ry="51.6163735"/>
      <path d="M0.783937743,52.4461223 L0.783937743,199.38814 C0.783937743,227.895772 53.9502668,251.008488 119.53408,251.008488 C185.118889,251.008488 238.284212,227.895772 238.284212,199.38814 L238.284212,52.4461223 C238.284212,52.4461223 233.344498,102.623118 119.53408,102.623118 C5.72164981,102.624125 0.783937743,52.4461223 0.783937743,52.4461223 L0.783937743,52.4461223 Z" fill="#9EAAB2"/>
      <path d="M222.402251,76.9275019 C225.753142,74.3625214 229.021385,71.7955387 231.490739,68.3221068 C232.908202,66.3239122 234.075642,64.1972296 235.172368,62.0306926 C236.386615,59.9199377 237.428535,57.7364669 238.283206,55.4862468 L238.283206,199.389136 C238.283206,212.607492 226.847866,224.665401 208.048311,233.796722 L208.048311,85.5956321 C213.118506,83.2069528 217.956597,80.3282179 222.402241,76.927492 L222.402251,76.9275019 Z" fill="#8E979A"/>
      <path d="M16.6658988,76.9275019 C13.3129961,74.3625214 10.0467549,71.7955387 7.57740078,68.3221068 C6.15694942,66.3239122 4.99050584,64.1972296 3.89477603,62.0306926 C2.68051922,59.9199377 1.63958537,57.7364669 0.783927782,55.4862468 L0.783927782,199.389136 C0.783927782,212.607492 12.2192585,224.665401 31.0178266,233.796722 L31.0178266,85.5956321 C25.9496243,83.2069528 21.110527,80.3282179 16.6658889,76.927492 L16.6658988,76.9275019 Z" fill="#8E979A"/>
      <path d="M119.53408,247.150568 C55.5679377,247.150568 3.43159533,225.775086 0.959252918,199.014589 C0.897494163,199.674003 0.856653696,200.337422 0.856653696,201.000821 C0.856653696,228.685677 53.9901012,251.127035 119.53408,251.127035 C185.078049,251.127035 238.211506,228.685677 238.211506,201.000821 C238.211506,200.337422 238.173664,199.674003 238.108907,199.014589 C235.635569,225.775046 183.500212,247.150568 119.53408,247.150568 L119.53408,247.150568 Z" fill="#8E979A"/>
      <path d="M119.53408,100.581105 C55.5679377,100.581105 3.43159533,79.2075953 0.959252918,52.4471384 C0.897494163,53.1065525 0.856653696,53.7679689 0.856653696,54.4353619 C0.856653696,82.1192318 53.9901012,104.559584 119.53408,104.559584 C185.078049,104.559584 238.211506,82.1192218 238.211506,54.4353619 C238.211506,53.7679689 238.173664,53.1065525 238.108907,52.4471384 C235.635569,79.2075953 183.500212,100.581105 119.53408,100.581105 L119.53408,100.581105 Z" fill="#DBE1E3"/>
      <path d="M119.53408,230.705795 C55.5679377,230.705795 3.43159533,209.332286 0.959252918,182.571829 C0.897494163,183.233245 0.856653696,183.892659 0.856653696,184.560062 C0.856653696,212.243912 53.9901012,234.684245 119.53408,234.684245 C185.078049,234.684245 238.211506,212.243922 238.211506,184.560062 C238.211506,183.892659 238.173664,183.233245 238.108907,182.571829 C235.635569,209.332286 183.500212,230.705795 119.53408,230.705795 L119.53408,230.705795 Z" fill="#DBE1E3"/>
    </g>
    <g transform="translate(18.926070, 99.610895)">
      <path d="M216.990381,56.7323791 C216.990381,61.2786204 215.030049,65.3766026 211.413167,69.4616454 C204.256125,77.5480679 156.88716,96.2958344 109.312,96.3356887 C61.2487371,96.3775153 12.973313,77.6297488 5.73956981,69.4616454 C2.11573541,65.3736243 0.163351907,61.2845871 0.163351907,56.7323791 C0.163351907,34.10177 48.7027449,15.7564514 108.576872,15.7564514 C168.451008,15.7574375 216.990391,34.10177 216.990391,56.7323791 L216.990381,56.7323791 Z" fill="#1A2B2F"/>
      <path d="M5.73858366,7.80152529 C22.8457588,19.7359066 66.3607782,30.875383 108.575866,30.875383 C150.790973,30.875383 196.693685,19.3384591 211.412191,7.80152529 L211.412191,0.640488093 C211.412191,0.640488093 179.156171,21.2798655 108.575866,21.2798655 C37.9935875,21.2798655 5.73858366,0.640488093 5.73858366,0.640488093 L5.73858366,7.80152529 L5.73858366,7.80152529 Z" fill="#1B3134"/>
      <path d="M211.413167,65.3068949 C211.413167,65.3068949 190.505827,94.7448928 108.576862,94.7448928 C26.6459044,94.7448928 5.73955984,65.3068949 5.73955984,65.3068949 L5.73955984,1.38958195 C5.73955984,1.38958195 35.3429217,21.5468526 106.156317,21.5468526 C176.968716,21.5468526 211.414163,1.38958195 211.414163,1.38958195 L211.414163,65.3068949 L211.413157,65.3068949 L211.413167,65.3068949 Z" fill="#213F48"/>
      <path d="M108.537037,91.5981846 C56.9047259,91.5902157 14.2244458,76.6525659 5.73958973,59.418875 L5.73958973,69.4616454 C5.73958973,69.4616454 26.6349672,97.6893809 108.496197,97.709323 L108.496197,97.709323 L108.537037,97.709323 L108.576901,97.709323 L108.576901,97.709323 C190.441109,97.6893809 211.413207,69.4616454 211.413207,69.4616454 L211.413207,59.418875 C202.928311,76.6525659 160.169358,91.5902157 108.537047,91.5981846 L108.537037,91.5981846 Z" fill="#1B3134"/>
    </g>
    <g>
      <path d="M127.502952,118.789987 C58.7813852,118.789987 2.76719066,97.4144847 0.109571984,70.6540078 C0.0438287938,71.3134319 0.000996108949,71.9768405 0.000996108949,72.6422412 C0.000996108949,100.327097 57.0860078,122.76744 127.502952,122.76744 C197.919885,122.76744 255.004867,100.327097 255.004867,72.6422412 C255.004867,71.9768405 254.962054,71.3134319 254.895325,70.6540078 C252.238713,97.4144847 196.224518,118.789987 127.502952,118.789987 L127.502952,118.789987 Z" fill="#8E979A"/>
      <path d="M127.502952,0 C57.0860078,0 0.000996108949,22.4423346 0.000996108949,50.1261946 L0.000996108949,72.0067337 C0.000996108949,99.6885914 57.0860078,122.130926 127.502952,122.130926 C197.919885,122.130926 255.004867,99.6885914 255.004867,72.0067337 L255.004867,50.1261946 C255.004867,22.4423346 197.919885,1.41555596e-14 127.502952,1.41555596e-14 L127.502952,0 Z" fill="#9EAAB2"/>
      <path d="M127.240965,16.9089494 C146.084378,16.9089494 163.443549,19.4978366 176.614101,23.7611829 L195.484389,16.9089494 L200.053551,36.3510139 L143.059185,36.3510139 L142.333022,36.2035897 L162.59587,28.8493174 C153.275288,25.7344847 140.84085,23.8299244 127.293759,23.8299244 C116.436181,23.8299244 106.26292,25.0631172 97.8517765,27.1718699 L79.1308949,23.3707181 C92.2625992,19.2806948 109.207409,16.9089594 127.240965,16.9089594 L127.240965,16.9089494 Z M53.5468327,34.8100233 C54.1793619,31.9780856 61.120249,29.7199066 69.0612296,29.7199066 C77.0002179,29.7199066 83.1382412,31.9790817 82.7656965,34.8100233 C82.3871751,37.6927626 75.4243735,40.0674864 67.2224125,40.0674864 C59.0214475,40.0684825 52.9023502,37.6927626 53.5468327,34.8100233 L53.5468327,34.8100233 Z M127.557728,70.7267337 C105.343482,70.7267337 85.6663458,67.1945214 72.1043325,61.6541634 L47.1119589,70.7267337 L52.2947138,47.0442335 L111.93076,47.0442335 L112.201702,47.1030139 L89.1766338,55.4593718 C98.7004314,59.2017532 112.281391,61.5704903 127.485988,61.5704903 C139.981188,61.5704903 151.300971,59.9856809 160.159377,57.3669105 L181.97515,62.0386615 C168.726911,67.2881656 149.600633,70.7267337 127.557728,70.7267337 L127.557728,70.7267337 Z M189.476866,54.4244146 C180.911325,54.4244146 173.591907,51.8325391 173.135699,48.6937998 C172.689442,45.6098465 179.045613,43.1534419 187.321286,43.1534419 C195.600944,43.1534419 202.897452,45.6098465 203.6276,48.6937998 C204.371673,51.8325391 198.041401,54.4244146 189.476866,54.4244146 L189.476866,54.4244146 Z" fill="#DBE1E3"/>
      <path d="M216.017193,108.079823 L216.017193,83.7608193 C216.017193,83.7608193 250.528384,73.1532551 255.004867,50.1262045 L255.004867,72.0067437 C255.004867,86.1723891 240.052306,98.9644302 216.017193,108.079823 L216.017193,108.079823 Z" fill="#8E979A"/>
      <path d="M38.9867082,108.079823 L38.9867082,83.4948582 C11.8357665,75.0090061 1.22621012,59.6250895 0,50.1262045 L0,72.0067437 C0.000996108949,86.1723891 14.9525914,98.9644302 38.9867082,108.079823 L38.9867082,108.079823 Z" fill="#8E979A"/>
      <path d="M127.502952,96.2739399 C58.7813852,96.2739399 2.76719066,74.898438 0.109571984,48.1379611 C0.0438287938,48.7983813 0.000996108949,49.4597977 0.000996108949,50.1271907 C0.000996108949,77.8100744 57.0860078,100.251403 127.502952,100.251403 C197.919885,100.251403 255.004867,77.8100744 255.004867,50.1271907 C255.004867,49.4597977 254.962054,48.7983813 254.895325,48.1379611 C252.238713,74.898438 196.224518,96.2739399 127.502952,96.2739399 L127.502952,96.2739399 Z" fill="#DBE1E3"/>
    </g>
    <g transform="translate(58.770428, 135.470817)">
      <g transform="translate(102.599222, 0.000000)">
        <path d="M34.0231072,19.7289339 C34.0231072,29.4778521 26.8909672,37.3829827 17.1101734,37.3829827 C7.33038568,37.3829827 0.198235642,29.4778621 0.198235642,19.7289339 C0.198235642,9.97802335 7.33037572,2.07589105 17.1101734,2.07589105 C26.8909672,2.07589105 34.0231072,9.97802335 34.0231072,19.7289339 L34.0231072,19.7289339 Z" fill="#1B3134"/>
        <ellipse fill="#51C3F1" cx="17.1111595" cy="16.2166537" rx="15.5363113" ry="15.5363113"/>
        <circle fill="#FFFFFF" cx="17.1101634" cy="13.8180233" r="5.06820233"/>
      </g>
      <g>
        <path d="M34.2641556,19.7289339 C34.2641556,29.4778521 27.1320156,37.3829827 17.3512218,37.3829827 C7.57242023,37.3829827 0.438287938,29.4778621 0.438287938,19.7289339 C0.438287938,9.97802335 7.57142412,2.07589105 17.3512218,2.07589105 C27.1320156,2.07589105 34.2641556,9.97802335 34.2641556,19.7289339 L34.2641556,19.7289339 Z" fill="#1B3134"/>
        <circle fill="#51C3F1" cx="17.5066148" cy="16.2166537" r="15.5353152"/>
        <circle fill="#FFFFFF" cx="17.3522179" cy="13.8180233" r="5.06820233"/>
      </g>
    </g>
    <path d="M128.239076,326.028451 C122.940763,326.028451 117.612576,325.750547 109.231315,325.040311 C105.303668,324.703646 102.106148,321.192332 102.106148,317.203922 L102.106148,237.542111 C102.106148,233.828617 104.919169,231.026572 108.650594,231.026572 C108.856788,231.026572 109.069946,231.036514 109.281131,231.054444 C117.630516,231.763683 122.946739,232.041588 128.239086,232.041588 C133.530417,232.041588 138.845644,231.763683 147.199024,231.053447 C147.408217,231.035508 147.620378,231.026572 147.826572,231.026572 C151.556004,231.026572 154.371018,233.827611 154.371018,237.542111 L154.371018,317.203922 C154.371018,321.192342 151.172502,324.703646 147.244845,325.040311 C138.861592,325.750517 133.534391,326.028451 128.239086,326.028451 L128.239076,326.028451 Z M108.650594,235.005012 C107.114604,235.005012 106.084627,236.023035 106.084627,237.542101 L106.084627,317.203912 C106.084627,319.108492 107.712259,320.917406 109.569016,321.075808 C117.827745,321.776042 123.062298,322.050968 128.239086,322.050968 C133.412856,322.050968 138.647419,321.777048 146.90815,321.075808 C148.763911,320.918402 150.392539,319.108482 150.392539,317.203912 L150.392539,237.542101 C150.392539,235.931393 149.19423,234.868555 147.539683,235.018967 C139.0618,235.738138 133.651932,236.019061 128.239086,236.019061 C122.825224,236.019061 117.41436,235.738148 108.939465,235.018967 C108.841837,235.008996 108.743222,235.005012 108.650584,235.005012 L108.650594,235.005012 Z" fill="#DBE1E3"/>
    <g transform="translate(162.365759, 231.097276)">
      <path d="M62.9979144,0.49106179 C53.5538154,6.61214132 35.9744747,18.0046493 0.902474708,25.9077678 C5.93980763,52.6413497 5.93980763,52.6413497 12.5629161,87.6804781 C24.6965391,84.0695832 49.9458988,76.5499468 70.4019723,59.6858322 C68.068099,40.0963636 66.1964202,24.8608672 62.9979144,0.491071751" fill="#F5DD3E"/>
      <path d="M40.1471751,70.8960623 C33.2351651,74.7091673 28.5106204,69.1687994 28.5106204,69.1687994 L32.5916788,65.2909373 C32.5916788,65.2909373 34.8677877,68.2264903 38.628099,65.7232685 C40.3892096,64.5518543 39.240716,58.6847527 39.240716,58.6847527 L35.8599222,42.5527583 L41.1801301,40.3095409 C41.1801301,40.3095409 44.4055409,58.9377644 44.7422356,60.8014842 C45.3717665,64.2908439 45.8907293,67.7254275 40.1471751,70.8960523 L40.1471751,70.8960623 Z" fill="#3B3735"/>
      <path d="M54.4762123,62.7458988 C50.5834285,63.3336031 48.3830139,60.4309317 48.3830139,60.4309317 L51.9321401,56.0869105 C51.9321401,56.0869105 53.2699343,57.5711029 55.1276675,57.2931984 C56.7035119,57.0521401 58.5532862,56.0032274 59.1987748,54.0229528 C60.2984791,50.6322079 59.2794496,49.4707549 55.8259598,49.855243 C52.3764246,50.2407272 48.037384,50.7467804 47.2693541,43.9423402 C46.5880255,37.9069261 51.8644146,33.2899511 55.4364613,32.6623925 C58.9806269,32.0418266 60.9578932,34.5440523 60.9578932,34.5440523 L57.4236987,38.8343035 C57.4236987,38.8343035 55.0788881,37.768457 53.669384,39.030527 C52.3873718,40.1810328 51.8943079,41.6821889 52.3824212,42.8227237 C52.8097419,43.8218111 54.1006892,44.2621111 56.1736118,44.1087203 C58.2475107,43.959284 61.6621522,42.7529961 63.763962,46.9824747 C66.1277186,51.7329282 63.6653472,61.3613074 54.4762322,62.7459088 L54.4762123,62.7458988 Z" fill="#3B3735"/>
    </g>
  </g>
</svg>

<svg width="256" height="358" xmlns="http://www.w3.org/2000/svg" preserveAspectRatio="xMidYMid"><g transform="translate(7.969 106.584)"><path d="M.784 52.446v146.942c0 28.508 53.166 51.62 118.75 51.62 65.585 0 118.75-23.112 118.75-51.62V52.446s-4.94 50.177-118.75 50.177C5.722 102.624.784 52.446.784 52.446Z" fill="#9EAAB2"/><ellipse fill="#8E979A" cx="119.534" cy="52.446" rx="118.75" ry="51.616"/><path d="M.784 52.446v146.942c0 28.508 53.166 51.62 118.75 51.62 65.585 0 118.75-23.112 118.75-51.62V52.446s-4.94 50.177-118.75 50.177C5.722 102.624.784 52.446.784 52.446Z" fill="#9EAAB2"/><path d="M222.402 76.928c3.351-2.565 6.62-5.132 9.089-8.606 1.417-1.998 2.585-4.125 3.681-6.291a45.576 45.576 0 0 0 3.111-6.545V199.39c0 13.218-11.435 25.276-30.235 34.408V85.596c5.07-2.389 9.909-5.268 14.354-8.669ZM16.666 76.928c-3.353-2.565-6.62-5.132-9.089-8.606-1.42-1.998-2.586-4.125-3.682-6.291a45.68 45.68 0 0 1-3.111-6.545V199.39c0 13.218 11.435 25.276 30.234 34.408V85.596c-5.068-2.389-9.907-5.268-14.352-8.669Z" fill="#8E979A"/><path d="M119.534 247.15C55.568 247.15 3.432 225.776.96 199.016c-.062.659-.102 1.322-.102 1.986 0 27.685 53.133 50.126 118.677 50.126 65.544 0 118.678-22.441 118.678-50.126 0-.664-.038-1.327-.103-1.986-2.473 26.76-54.609 48.136-118.575 48.136Z" fill="#8E979A"/><path d="M119.534 100.581C55.568 100.581 3.432 79.208.96 52.447a21.29 21.29 0 0 0-.102 1.988c0 27.684 53.133 50.125 118.677 50.125 65.544 0 118.678-22.44 118.678-50.125 0-.667-.038-1.328-.103-1.988-2.473 26.76-54.609 48.134-118.575 48.134ZM119.534 230.706c-63.966 0-116.102-21.374-118.575-48.134-.062.661-.102 1.32-.102 1.988 0 27.684 53.133 50.124 118.677 50.124 65.544 0 118.678-22.44 118.678-50.124 0-.667-.038-1.327-.103-1.988-2.473 26.76-54.609 48.134-118.575 48.134Z" fill="#DBE1E3"/></g><path d="M235.916 156.343c0 4.547-1.96 8.644-5.577 12.73-7.157 8.086-54.526 26.834-102.1 26.874-48.064.041-96.34-18.706-103.573-26.874-3.624-4.088-5.577-8.178-5.577-12.73 0-22.63 48.54-40.976 108.414-40.976 59.874.001 108.413 18.346 108.413 40.976Z" fill="#1A2B2F"/><path d="M24.665 107.412c17.107 11.935 60.622 23.074 102.837 23.074s88.118-11.537 102.836-23.074v-7.16s-32.256 20.639-102.836 20.639c-70.582 0-102.837-20.64-102.837-20.64v7.161Z" fill="#1B3134"/><path d="M230.34 164.918s-20.908 29.438-102.837 29.438c-81.931 0-102.837-29.438-102.837-29.438V101s29.603 20.158 100.416 20.158C195.895 121.158 230.34 101 230.34 101v63.918Z" fill="#213F48"/><path d="M127.463 191.21c-51.632-.009-94.312-14.947-102.797-32.18v10.043S45.56 197.3 127.422 197.32h.081c81.864-.02 102.836-28.247 102.836-28.247V159.03c-8.485 17.233-51.244 32.171-102.876 32.18Z" fill="#1B3134"/><path d="M127.503 118.79C58.781 118.79 2.767 97.414.11 70.654.044 71.314 0 71.977 0 72.642c0 27.685 57.085 50.125 127.502 50.125s127.502-22.44 127.502-50.125c0-.665-.043-1.329-.11-1.988-2.656 26.76-58.67 48.136-127.392 48.136Z" fill="#8E979A"/><path d="M127.503 0C57.086 0 .001 22.442.001 50.126v21.88c0 27.683 57.085 50.125 127.502 50.125s127.502-22.442 127.502-50.124v-21.88C255.005 22.441 197.92 0 127.503 0Z" fill="#9EAAB2"/><path d="M127.241 16.909c18.843 0 36.203 2.589 49.373 6.852l18.87-6.852 4.57 19.442h-56.995l-.726-.147 20.263-7.355c-9.32-3.115-21.755-5.02-35.302-5.02-10.858 0-21.031 1.234-29.442 3.343L79.13 23.37c13.132-4.09 30.076-6.462 48.11-6.462ZM53.547 34.81c.632-2.832 7.573-5.09 15.514-5.09 7.94 0 14.077 2.26 13.705 5.09-.379 2.883-7.342 5.257-15.544 5.257-8.2.001-14.32-2.374-13.675-5.257Zm74.01 35.917c-22.214 0-41.89-3.532-55.453-9.073l-24.992 9.073 5.183-23.683h59.636l.27.059-23.024 8.356c9.523 3.743 23.104 6.111 38.309 6.111 12.495 0 23.815-1.584 32.673-4.203l21.816 4.672c-13.248 5.25-32.374 8.688-54.417 8.688Zm61.92-16.303c-8.566 0-15.885-2.591-16.341-5.73-.447-3.084 5.91-5.54 14.185-5.54 8.28 0 15.576 2.456 16.307 5.54.744 3.139-5.587 5.73-14.151 5.73Z" fill="#DBE1E3"/><path d="M216.017 108.08V83.76s34.511-10.607 38.988-33.634v21.88c0 14.166-14.953 26.958-38.988 36.074ZM38.987 108.08V83.495C11.836 75.009 1.227 59.625 0 50.126v21.88c.001 14.166 14.953 26.958 38.987 36.074Z" fill="#8E979A"/><path d="M127.503 96.274C58.781 96.274 2.767 74.898.11 48.138A20.05 20.05 0 0 0 0 50.128c0 27.682 57.085 50.123 127.502 50.123s127.502-22.44 127.502-50.124c0-.667-.043-1.329-.11-1.989-2.656 26.76-58.67 48.136-127.392 48.136Z" fill="#DBE1E3"/><g transform="translate(161.37 135.47)"><path d="M34.023 19.729c0 9.749-7.132 17.654-16.913 17.654-9.78 0-16.912-7.905-16.912-17.654C.198 9.978 7.33 2.076 17.11 2.076c9.781 0 16.913 7.902 16.913 17.653Z" fill="#1B3134"/><circle fill="#51C3F1" cx="17.111" cy="16.217" r="15.536"/><circle fill="#FFF" cx="17.11" cy="13.818" r="5.068"/></g><g transform="translate(58.77 135.47)"><path d="M34.264 19.729c0 9.749-7.132 17.654-16.913 17.654-9.779 0-16.913-7.905-16.913-17.654 0-9.751 7.133-17.653 16.913-17.653 9.781 0 16.913 7.902 16.913 17.653Z" fill="#1B3134"/><circle fill="#51C3F1" cx="17.507" cy="16.217" r="15.535"/><circle fill="#FFF" cx="17.352" cy="13.818" r="5.068"/></g><path d="M128.24 326.028c-5.3 0-10.627-.277-19.009-.988-3.927-.336-7.125-3.848-7.125-7.836v-79.662c0-3.713 2.813-6.515 6.545-6.515.206 0 .419.01.63.027 8.35.71 13.666.988 18.958.988 5.291 0 10.607-.278 18.96-.989.21-.017.421-.026.628-.026 3.729 0 6.544 2.8 6.544 6.515v79.662c0 3.988-3.198 7.5-7.126 7.836-8.383.71-13.71.988-19.006.988Zm-19.59-91.023c-1.535 0-2.565 1.018-2.565 2.537v79.662c0 1.904 1.627 3.713 3.484 3.872 8.259.7 13.493.975 18.67.975 5.174 0 10.408-.274 18.67-.975 1.855-.158 3.484-1.968 3.484-3.872v-79.662c0-1.61-1.199-2.673-2.853-2.523-8.478.72-13.888 1-19.3 1-5.415 0-10.826-.28-19.3-1a2.87 2.87 0 0 0-.29-.014Z" fill="#DBE1E3"/><path d="M225.364 231.588c-9.444 6.121-27.024 17.514-62.096 25.417 5.038 26.734 5.038 26.734 11.66 61.773 12.134-3.611 37.384-11.13 57.84-27.995-2.334-19.59-4.206-34.825-7.404-59.195" fill="#F5DD3E"/><path d="M202.513 301.993c-6.912 3.813-11.637-1.727-11.637-1.727l4.081-3.878s2.277 2.936 6.037.433c1.761-1.172.612-7.039.612-7.039l-3.38-16.132 5.32-2.243s3.225 18.628 3.562 20.492c.63 3.49 1.148 6.924-4.595 10.094ZM216.842 293.843c-3.893.588-6.093-2.315-6.093-2.315l3.549-4.344s1.338 1.484 3.195 1.206c1.576-.24 3.426-1.29 4.072-3.27 1.1-3.39.08-4.552-3.373-4.167-3.45.385-7.789.891-8.557-5.913-.681-6.036 4.595-10.653 8.167-11.28 3.544-.62 5.522 1.881 5.522 1.881l-3.535 4.29s-2.344-1.065-3.754.197c-1.282 1.15-1.775 2.651-1.287 3.792.428 1 1.718 1.44 3.791 1.286 2.074-.15 5.489-1.356 7.59 2.874 2.364 4.75-.098 14.379-9.287 15.763Z" fill="#3B3735"/></svg>
